X: 73
T: The Convenience Reel
T:Mark McLoughlin's
C:Olcan Masterson
R:reel
M:C|
K:D
"D"dABA dABA|GAFA EADA|dABA dABA|1 FAEA D3A:|2 FAEA D4||
|:"D"df~f2 dfed|"A"cdef "A7"gece|"D"df~f2 dfed|1 "A"cABc "D"d3A:|2 "A"cABc "D"defg||
|:"D"~a3g f2e2|"A"Aee2 Aee2|"D"~a3g f2e2|Addc defg|
"D"aA~A2 aAaA|"A7"gA~A2 gAgA|"D"fgaf "G"gbag|1"D" fdec defg:|2 "D"fdec dABc|]


